X:128
T: Die elfjaehrige Markgraefin
N: Q1053F
O: Mitteleuropa, Deutschland
N: Melodievergleich zu Q0053 , anderes Lied.
R: Liebes - Lied
M: 3/2
L: 1/16
K: F
F4F4G4 | A4c6B2A2B2G4G4 | F8z4
F4c4d4 | e4c4f6e2d4c4d8 | c8z4
c4c4c4 | f6edc4d4c4c4 | A8
c8F4F4 | A4c4B4A4G4F4G8 | F12

@@@ Tune index: 864
